static/img/marketing.svg

<?xml version="1.0" encoding="utf-8"?>
<!-- Generated by IcoMoon.io -->
<!DOCTYPE svg PUBLIC "-//W3C//DTD SVG 1.1//EN" "http://www.w3.org/Graphics/SVG/1.1/DTD/svg11.dtd">
<svg version="1.1" xmlns="http://www.w3.org/2000/svg" xmlns:xlink="http://www.w3.org/1999/xlink" width="20" height="20" viewBox="0 0 20 20">
<path fill="#000000" d="M11.5 14h-8c-0.827 0-1.5-0.673-1.5-1.5v-8c0-0.827 0.673-1.5 1.5-1.5h13c0.827 0 1.5 0.673 1.5 1.5v1c0 0.276-0.224 0.5-0.5 0.5s-0.5-0.224-0.5-0.5v-1c0-0.276-0.224-0.5-0.5-0.5h-13c-0.276 0-0.5 0.224-0.5 0.5v8c0 0.276 0.224 0.5 0.5 0.5h8c0.276 0 0.5 0.224 0.5 0.5s-0.224 0.5-0.5 0.5z"></path>
<path fill="#000000" d="M11.5 18h-10c-0.827 0-1.5-0.673-1.5-1.5v-1c0-0.276 0.224-0.5 0.5-0.5h11c0.276 0 0.5 0.224 0.5 0.5s-0.224 0.5-0.5 0.5h-10.5v0.5c0 0.276 0.224 0.5 0.5 0.5h10c0.276 0 0.5 0.224 0.5 0.5s-0.224 0.5-0.5 0.5z"></path>
<path fill="#000000" d="M18.5 18h-4c-0.827 0-1.5-0.673-1.5-1.5v-8c0-0.827 0.673-1.5 1.5-1.5h4c0.827 0 1.5 0.673 1.5 1.5v8c0 0.827-0.673 1.5-1.5 1.5zM14.5 8c-0.276 0-0.5 0.224-0.5 0.5v8c0 0.276 0.224 0.5 0.5 0.5h4c0.276 0 0.5-0.224 0.5-0.5v-8c0-0.276-0.224-0.5-0.5-0.5h-4z"></path>
<path fill="#000000" d="M16.5 16c-0.132 0-0.26-0.053-0.353-0.147s-0.147-0.222-0.147-0.353 0.053-0.261 0.147-0.353c0.093-0.093 0.222-0.147 0.353-0.147s0.261 0.053 0.353 0.147c0.093 0.093 0.147 0.222 0.147 0.353s-0.053 0.261-0.147 0.353c-0.093 0.093-0.222 0.147-0.353 0.147z"></path>
</svg>

<?xml version="1.0" encoding="utf-8"?>
<!-- Generator: Adobe Illustrator 24.3.0, SVG Export Plug-In . SVG Version: 6.00 Build 0)  -->
<svg version="1.1" id="Ebene_1" xmlns="http://www.w3.org/2000/svg" xmlns:xlink="http://www.w3.org/1999/xlink" x="0px" y="0px"
	 viewBox="0 0 20 20" style="enable-background:new 0 0 20 20;" xml:space="preserve">
<style type="text/css">
	.st0{fill:#FF6666;}
</style>
<path class="st0" d="M11.5,14h-8C2.7,14,2,13.3,2,12.5v-8C2,3.7,2.7,3,3.5,3h13C17.3,3,18,3.7,18,4.5v1C18,5.8,17.8,6,17.5,6
	S17,5.8,17,5.5v-1C17,4.2,16.8,4,16.5,4h-13C3.2,4,3,4.2,3,4.5v8C3,12.8,3.2,13,3.5,13h8c0.3,0,0.5,0.2,0.5,0.5S11.8,14,11.5,14z"/>
<path class="st0" d="M11.5,18h-10C0.7,18,0,17.3,0,16.5v-1C0,15.2,0.2,15,0.5,15h11c0.3,0,0.5,0.2,0.5,0.5S11.8,16,11.5,16H1v0.5
	C1,16.8,1.2,17,1.5,17h10c0.3,0,0.5,0.2,0.5,0.5S11.8,18,11.5,18z"/>
<path class="st0" d="M18.5,18h-4c-0.8,0-1.5-0.7-1.5-1.5v-8C13,7.7,13.7,7,14.5,7h4C19.3,7,20,7.7,20,8.5v8C20,17.3,19.3,18,18.5,18
	z M14.5,8C14.2,8,14,8.2,14,8.5v8c0,0.3,0.2,0.5,0.5,0.5h4c0.3,0,0.5-0.2,0.5-0.5v-8C19,8.2,18.8,8,18.5,8H14.5z"/>
<path d="M16.5,16c-0.1,0-0.3-0.1-0.4-0.1S16,15.6,16,15.5s0.1-0.3,0.1-0.4c0.1-0.1,0.2-0.1,0.4-0.1s0.3,0.1,0.4,0.1
	c0.1,0.1,0.1,0.2,0.1,0.4s-0.1,0.3-0.1,0.4C16.8,15.9,16.6,16,16.5,16z"/>
</svg>
